X:1
T:Gypsy Rover
M:4/4
L:1/8
K:C
 G,2 C2 D2 ED| C2 G, G, G,4| G,2 CC D2 EF| E4 D3 G,| CC CC D2 EF| G2 E2 C2 CD|\
 E3 E D2 CA,| G,- C2- A, G,4|
